X: 10782
T: TOM BOWLING
Q: "Andante"
%R: march, reel
B: "Edinburgh Repository of Music" v.1 p.78 #2
F: http://digital.nls.uk/special-collections-of-printed-music/pageturner.cfm?id=87776133
Z: 2015 John Chambers <jc:trillian.mit.edu>
N: The next-to-last bar has 3 beats rather than 2.
M: 2/4
L: 1/16
K: F
c2 |\
f2f2 B2(dc) | c3d/B/ (BA) (GF) |\
B2A2 (d2cd/B/) | A3B/A/ G2c2 |\
f2f2 B2d>c | (c3d/B/) (BA) GF |\
B2A2 G3A | F4 z2F2 |\
c3c d2e2 |
f2{a}g2 (fe)(dc) |\
f3f {e}d2 c2dB | A3B/A/ G2c2 |\
f2f2 B3d/c/ | c2dB BA GF |\
B2A2G2A2 | B3c/d/ c2 zB |\
(Ac) (fa) {a}g4 {f}e4 | {e}f4 z2 |]
